packages/icons/raw/imported/MailEnvelope.svg

<svg width="32" height="32" viewBox="0 0 32 32" fill="none" xmlns="http://www.w3.org/2000/svg">
<path d="M13.8221 15.7529L13.5499 16.1723L13.8221 15.7529ZM6.5 11H6V11L6.5 11ZM18.1779 15.7529L17.9056 15.3335L18.1779 15.7529ZM23.5 23V22.5V23ZM8.5 23V23.5V23ZM25.5 21H26H25.5ZM6.5 21H7H6.5ZM23.5 9V9.5V9ZM8.5 9.00001L8.5 8.50001L8.5 9.00001ZM14.0944 15.3335L6.77223 10.5806L6.22777 11.4194L13.5499 16.1723L14.0944 15.3335ZM18.4501 16.1723L25.7722 11.4194L25.2278 10.5806L17.9056 15.3335L18.4501 16.1723ZM13.5499 16.1723C15.0401 17.1396 16.9599 17.1396 18.4501 16.1723L17.9056 15.3335C16.7466 16.0859 15.2534 16.0859 14.0944 15.3335L13.5499 16.1723ZM23.5 22.5L8.5 22.5V23.5L23.5 23.5V22.5ZM25 11V21H26V11H25ZM6 11L6 21H7L7 11L6 11ZM23.5 8.5L8.5 8.50001L8.5 9.50001L23.5 9.5V8.5ZM26 11C26 9.61932 24.8807 8.5 23.5 8.5V9.5C24.3284 9.5 25 10.1716 25 11H26ZM7 11C7 10.1716 7.67158 9.50001 8.5 9.50001L8.5 8.50001C7.11928 8.50002 6 9.61932 6 11H7ZM8.5 22.5C7.67158 22.5 7 21.8284 7 21H6C6 22.3807 7.11929 23.5 8.5 23.5V22.5ZM23.5 23.5C24.8807 23.5 26 22.3807 26 21H25C25 21.8284 24.3284 22.5 23.5 22.5V23.5Z" fill="black"/>
</svg>

<svg width="32" height="32" fill="none" xmlns="http://www.w3.org/2000/svg"><path d="m13.822 15.753-.272.42.272-.42ZM6.5 11H6h.5Zm11.678 4.753-.272-.42.272.42ZM23.5 23v-.5.5Zm-15 0v.5-.5Zm17-2h.5-.5Zm-19 0H7h-.5Zm17-12v.5V9Zm-15 0v-.5.5Zm5.594 6.334L6.772 10.58l-.544.838 7.322 4.753.544-.838Zm4.356.838 7.322-4.753-.544-.838-7.322 4.753.544.838Zm-4.9 0a4.5 4.5 0 0 0 4.9 0l-.544-.838a3.5 3.5 0 0 1-3.812 0l-.544.838ZM23.5 22.5h-15v1h15v-1ZM25 11v10h1V11h-1ZM6 11v10h1V11H6Zm17.5-2.5h-15v1h15v-1ZM26 11a2.5 2.5 0 0 0-2.5-2.5v1A1.5 1.5 0 0 1 25 11h1ZM7 11a1.5 1.5 0 0 1 1.5-1.5v-1A2.5 2.5 0 0 0 6 11h1Zm1.5 11.5A1.5 1.5 0 0 1 7 21H6a2.5 2.5 0 0 0 2.5 2.5v-1Zm15 1A2.5 2.5 0 0 0 26 21h-1a1.5 1.5 0 0 1-1.5 1.5v1Z" fill="#000"/></svg>
